packages/assets/static/images/icons/list.svg

<svg width="24" height="24" viewBox="0 0 24 24" xmlns="http://www.w3.org/2000/svg">
<path d="M6.75 9.75C6.75 9.55109 6.82902 9.36032 6.96967 9.21967C7.11032 9.07902 7.30109 9 7.5 9H16.5C16.6989 9 16.8897 9.07902 17.0303 9.21967C17.171 9.36032 17.25 9.55109 17.25 9.75C17.25 9.94891 17.171 10.1397 17.0303 10.2803C16.8897 10.421 16.6989 10.5 16.5 10.5H7.5C7.30109 10.5 7.11032 10.421 6.96967 10.2803C6.82902 10.1397 6.75 9.94891 6.75 9.75ZM7.5 13.5H16.5C16.6989 13.5 16.8897 13.421 17.0303 13.2803C17.171 13.1397 17.25 12.9489 17.25 12.75C17.25 12.5511 17.171 12.3603 17.0303 12.2197C16.8897 12.079 16.6989 12 16.5 12H7.5C7.30109 12 7.11032 12.079 6.96967 12.2197C6.82902 12.3603 6.75 12.5511 6.75 12.75C6.75 12.9489 6.82902 13.1397 6.96967 13.2803C7.11032 13.421 7.30109 13.5 7.5 13.5ZM21.75 5.25V19.5C21.7499 19.6278 21.7172 19.7535 21.6549 19.8651C21.5926 19.9768 21.5028 20.0706 21.394 20.1378C21.2853 20.2049 21.1611 20.2432 21.0334 20.2489C20.9057 20.2546 20.7787 20.2275 20.6644 20.1703L18 18.8381L15.3356 20.1703C15.2314 20.2225 15.1165 20.2496 15 20.2496C14.8835 20.2496 14.7686 20.2225 14.6644 20.1703L12 18.8381L9.33563 20.1703C9.23143 20.2225 9.11652 20.2496 9 20.2496C8.88348 20.2496 8.76857 20.2225 8.66437 20.1703L6 18.8381L3.33563 20.1703C3.22131 20.2275 3.09427 20.2546 2.96657 20.2489C2.83887 20.2432 2.71474 20.2049 2.60597 20.1378C2.49721 20.0706 2.40741 19.9768 2.34511 19.8651C2.28281 19.7535 2.25007 19.6278 2.25 19.5V5.25C2.25 4.85218 2.40804 4.47064 2.68934 4.18934C2.97064 3.90804 3.35218 3.75 3.75 3.75H20.25C20.6478 3.75 21.0294 3.90804 21.3107 4.18934C21.592 4.47064 21.75 4.85218 21.75 5.25ZM20.25 5.25H3.75V18.2869L5.66437 17.3287C5.76857 17.2766 5.88349 17.2495 6 17.2495C6.11651 17.2495 6.23143 17.2766 6.33563 17.3287L9 18.6619L11.6644 17.3287C11.7686 17.2766 11.8835 17.2495 12 17.2495C12.1165 17.2495 12.2314 17.2766 12.3356 17.3287L15 18.6619L17.6644 17.3287C17.7686 17.2766 17.8835 17.2495 18 17.2495C18.1165 17.2495 18.2314 17.2766 18.3356 17.3287L20.25 18.2869V5.25Z"/>
</svg>

<svg viewBox="0 0 24 24" xmlns="http://www.w3.org/2000/svg" aria-hidden="true" fill="currentColor"><path d="M6.75 9.75A.75.75 0 0 1 7.5 9h9a.75.75 0 1 1 0 1.5h-9a.75.75 0 0 1-.75-.75m.75 3.75h9a.75.75 0 1 0 0-1.5h-9a.75.75 0 1 0 0 1.5m14.25-8.25V19.5a.75.75 0 0 1-1.086.67L18 18.838l-2.664 1.332a.75.75 0 0 1-.672 0L12 18.838 9.336 20.17a.75.75 0 0 1-.672 0L6 18.838 3.336 20.17a.75.75 0 0 1-1.086-.67V5.25a1.5 1.5 0 0 1 1.5-1.5h16.5a1.5 1.5 0 0 1 1.5 1.5m-1.5 0H3.75v13.037l1.914-.958a.75.75 0 0 1 .672 0L9 18.662l2.664-1.333a.75.75 0 0 1 .672 0L15 18.662l2.664-1.333a.75.75 0 0 1 .672 0l1.914.958z"/></svg>
